<?xml version="1.0" encoding="UTF-8"?>
<map version="1.10" tiledversion="1.12.1" orientation="orthogonal" renderorder="right-down" width="45" height="25" tilewidth="64" tileheight="64" infinite="0" nextlayerid="6" nextobjectid="96">
 <tileset firstgid="1" name="hothouse_flowers" tilewidth="32" tileheight="32" tilecount="72" columns="6">
  <image source="../graphics/hothouse_flowers.png" width="192" height="384"/>
 </tileset>
 <tileset firstgid="73" name="[64x64] Rocky Grass" tilewidth="64" tileheight="64" tilecount="56" columns="8">
  <image source="../../../../../../../pika_go/data/graphics/[64x64] Rocky Grass.png" width="512" height="448"/>
 </tileset>
 <layer id="1" name="Main" width="45" height="25">
  <data encoding="csv">
0,0,0,0,0,0,0,0,0,0,0,0,0,0,0,0,0,0,0,0,0,0,0,0,0,0,0,0,0,0,0,0,0,0,0,0,0,0,0,0,0,0,0,0,0,
0,0,0,0,0,0,0,0,0,0,0,0,0,0,0,0,0,0,0,0,0,0,0,0,0,0,0,0,0,0,0,0,0,0,0,0,0,0,0,0,0,0,0,0,0,
0,0,0,0,0,0,0,0,0,0,0,0,0,0,0,0,0,0,0,0,0,0,0,0,0,0,0,0,0,0,0,0,0,0,0,0,0,0,0,0,0,0,0,0,0,
0,0,0,0,0,0,0,0,0,0,0,0,0,0,0,0,0,0,0,0,0,0,0,0,117,118,118,118,118,78,0,0,100,0,0,0,0,0,0,0,0,0,0,0,0,
0,0,0,0,0,0,0,0,0,117,118,119,0,0,0,0,0,0,0,0,0,0,0,0,0,0,0,0,0,116,0,0,108,0,0,0,0,0,0,0,0,0,0,0,0,
0,0,0,0,0,0,0,0,0,0,0,0,0,0,0,0,0,0,0,0,0,0,120,0,0,0,0,0,0,0,0,0,92,118,78,0,0,0,0,0,0,0,0,0,0,
0,0,0,0,0,0,0,0,0,0,0,0,0,0,0,0,0,0,0,0,0,0,0,0,0,0,0,0,0,0,0,0,0,0,92,118,118,118,118,118,118,118,118,78,0,
0,0,0,0,0,0,0,0,117,118,118,78,0,0,0,76,118,118,118,118,75,0,0,0,0,0,0,0,0,0,0,0,0,0,0,0,0,0,0,0,0,0,0,108,0,
0,0,0,0,117,119,0,0,0,0,0,116,0,73,118,94,0,0,0,0,92,118,118,118,118,119,0,0,0,0,0,0,0,0,0,0,0,0,0,0,0,0,0,108,0,
0,120,0,0,0,0,0,0,0,0,0,0,0,116,0,0,0,0,0,0,0,0,0,0,0,0,0,0,0,0,0,0,0,0,0,0,0,0,0,0,0,0,0,108,0,
0,0,0,0,0,0,0,0,0,0,0,0,0,0,0,0,0,0,0,0,0,0,0,0,0,0,0,0,0,0,0,0,0,0,0,0,0,0,0,0,0,0,0,108,0,
0,0,120,0,0,0,0,0,0,0,0,0,0,0,0,0,0,0,0,0,0,0,0,0,0,0,0,0,0,0,0,0,0,0,0,0,0,0,0,0,0,0,0,108,0,
0,0,0,0,0,0,0,0,0,0,0,0,0,0,0,0,0,0,0,0,0,0,0,0,0,0,0,117,118,119,0,0,0,0,0,0,0,0,0,0,0,0,0,116,0,
0,73,118,118,118,118,118,118,78,0,0,73,118,118,118,118,118,78,0,0,0,0,0,0,0,0,0,0,0,0,0,0,0,0,0,0,0,0,0,0,0,0,0,0,0,
0,116,0,0,0,0,0,0,108,0,0,108,0,0,0,0,0,108,0,0,0,0,0,0,0,0,0,0,0,0,0,0,0,0,0,0,0,0,0,0,0,0,0,0,0,
0,0,0,0,0,0,0,0,116,0,0,108,0,0,0,0,0,116,0,0,117,119,0,0,0,0,0,0,0,0,0,0,0,0,0,76,118,119,0,0,0,0,0,0,0,
0,0,0,0,0,0,0,0,0,0,0,116,0,0,0,0,0,0,0,0,0,0,0,0,0,0,0,0,0,0,0,0,0,0,76,94,0,0,0,0,0,0,0,0,0,
118,78,0,0,0,0,0,0,0,0,0,0,0,0,0,0,0,0,0,0,0,0,0,0,0,0,0,0,0,0,0,0,76,118,94,0,0,0,0,0,0,0,0,0,0,
0,92,78,0,0,0,0,73,78,0,0,0,0,0,0,0,0,0,0,0,0,0,0,0,0,0,0,0,0,76,118,118,94,0,0,0,0,0,0,0,0,0,0,0,0,
0,0,108,0,0,0,0,89,112,118,118,118,118,118,78,0,0,73,119,0,0,117,118,118,78,0,0,73,118,94,0,0,0,0,0,0,0,0,0,0,0,0,0,0,0,
0,0,108,0,0,120,0,0,0,0,0,0,0,0,116,0,0,116,0,0,0,0,0,0,92,118,118,94,0,0,0,0,0,0,0,0,0,0,0,0,0,0,0,0,0,
0,0,108,0,0,0,0,0,0,0,0,0,0,0,0,0,0,0,0,0,0,0,0,0,0,0,0,0,0,0,0,0,0,0,0,0,0,0,0,0,0,0,0,0,0,
0,0,108,0,0,0,0,0,0,0,0,0,0,0,0,0,0,0,0,0,0,0,0,0,0,0,0,0,0,0,0,0,0,0,0,0,0,0,0,0,0,0,0,0,0,
0,0,92,118,118,119,0,0,0,0,0,0,0,0,0,0,0,0,0,0,0,0,0,0,0,0,0,0,0,0,0,0,0,0,0,0,0,0,0,0,0,0,0,0,0,
0,0,0,0,0,0,0,0,0,0,0,0,0,0,0,0,0,0,0,0,0,0,0,0,0,0,0,0,0,0,0,0,0,0,0,0,0,0,0,0,0,0,0,0,0
</data>
 </layer>
 <objectgroup id="2" name="Entities">
  <object id="1" name="Player" x="320" y="320">
   <point/>
  </object>
  <object id="3" name="Worm" x="2240" y="320" width="576" height="64"/>
  <object id="4" name="Worm" x="1536" y="128" width="384" height="64"/>
  <object id="5" name="Worm" x="960" y="384" width="384" height="64"/>
  <object id="6" name="Worm" x="704" y="768" width="448" height="64"/>
  <object id="7" name="Worm" x="576" y="1152" width="384" height="64"/>
  <object id="79" name="Pika" x="2368" y="960">
   <point/>
  </object>
  <object id="89" name="Worm" x="576" y="192" width="192" height="64"/>
  <object id="90" name="Worm" x="1344" y="1152" width="256" height="64"/>
  <object id="92" name="Worm" x="1344" y="448" width="320" height="64"/>
  <object id="93" name="Worm" x="64" y="768" width="512" height="64"/>
  <object id="94" name="Worm" x="1856" y="1088" width="192" height="64"/>
 </objectgroup>
 <objectgroup id="5" name="Flowers">
  <object id="56" gid="25" x="64" y="576" width="64" height="64"/>
  <object id="58" gid="26" x="192" y="832" width="64" height="64"/>
  <object id="59" gid="27" x="384" y="768" width="64" height="64"/>
  <object id="60" gid="28" x="576" y="448" width="64" height="64"/>
  <object id="61" gid="29" x="448" y="384" width="64" height="64"/>
  <object id="62" gid="30" x="512" y="448" width="64" height="64"/>
  <object id="63" gid="29" x="832" y="1216" width="64" height="64"/>
  <object id="64" gid="29" x="64" y="1088" width="64" height="64"/>
  <object id="68" gid="28" x="960" y="448" width="64" height="64"/>
  <object id="69" gid="28" x="1856" y="192" width="64" height="64"/>
  <object id="70" gid="28" x="2368" y="384" width="64" height="64"/>
  <object id="71" gid="25" x="704" y="448" width="64" height="64"/>
  <object id="72" gid="25" x="832" y="320" width="64" height="64"/>
  <object id="73" gid="30" x="896" y="384" width="64" height="64"/>
  <object id="74" gid="26" x="768" y="384" width="64" height="64"/>
  <object id="75" gid="27" x="768" y="832" width="64" height="64"/>
  <object id="76" gid="29" x="1408" y="320" width="64" height="64"/>
  <object id="77" gid="30" x="256" y="1472" width="64" height="64"/>
  <object id="78" gid="28" x="1152" y="1216" width="64" height="64"/>
  <object id="82" gid="30" x="1600" y="1280" width="64" height="64"/>
  <object id="80" gid="30" x="2048" y="1088" width="64" height="64"/>
  <object id="86" gid="26" x="1792" y="1216" width="64" height="64"/>
  <object id="87" gid="29" x="1792" y="768" width="64" height="64"/>
  <object id="88" gid="25" x="640" y="256" width="64" height="64"/>
 </objectgroup>
</map>
